public/assets/svgs/addons/ember-performance-workshop.svg

<svg height="52" viewBox="0 0 58 52" width="58" xmlns="http://www.w3.org/2000/svg"><g fill="none"><g fill="#95a5a5"><path d="m49.99994 5.99991h4v6.77h-4z"/><path d="m51 0h2c1.1045695 0 2 .8954305 2 2v3h-6v-3c0-1.1045695.8954305-2 2-2z"/><path d="m7 0h-2c-1.1045695 0-2 .8954305-2 2v3h6v-3c0-1.1045695-.8954305-2-2-2z"/><path d="m4 7.375h4v5.395h-4z"/></g><path d="m1 21c-.4043959-.0000863-.76893405-.2437275-.92367798-.6173454-.15474393-.373618-.06922994-.8036603.21667798-1.0896546l2.87988-2.87988c.25259749-.2525975.62076635-.351248.96582094-.2587909s.6145729.3619754.70703.70703c.0924571.3450545-.00619345.7132234-.25879094.9658209l-2.87994 2.87982c-.18729024.1878521-.44173418.2933006-.707.293z" fill="#7f8c8d"/><path d="m57 21c-.2652658.0003006-.5197098-.1051479-.707-.293l-2.87988-2.87988c-.2525975-.2525975-.351248-.6207664-.2587909-.9658209.0924571-.3450546.3619754-.6145729.70703-.70703.3450545-.0924571.7132234.0061934.9658209.2587909l2.87982 2.87994c.2859079.2859943.3714219.7160366.216678 1.0896546-.1547439.3736179-.5192821.6172591-.923678.6173454z" fill="#7f8c8d"/><g fill="#cb9080"><path d="m15.0719 15h27.9281v4h-27.9281z"/><path d="m47.68458 38h-37.36968c-.37359409.0255727-.73028799-.1592366-.92486087-.4791864s-.19457288-.7216774 0-1.0416272.55126678-.5047591.92486087-.4791864h37.36968c.3735941-.0255727.730288.1592366.9248609.4791864s.1945729.7216774 0 1.0416272-.5512668.5047591-.9248609.4791864z"/><path d="m50.92925 48h-43.8585c-.37359409.0255727-.73028799-.1592366-.92486087-.4791864s-.19457288-.7216774 0-1.0416272.55126678-.5047591.92486087-.4791864h43.8585c.3735941-.0255727.730288.1592366.9248609.4791864s.1945729.7216774 0 1.0416272-.5512668.5047591-.9248609.4791864z"/></g><rect fill="#af8066" height="4" rx="1" width="58" y="4"/><circle cx="6" cy="15" fill="#bdc3c7" r="3"/><circle cx="52" cy="15" fill="#bdc3c7" r="3"/><path d="m17 6v13l-9.59 31.64c-.24228347.8080312-.98642745 1.3610563-1.83 1.36h-.01c-.60373486.0007913-1.17196708-.285183-1.53104385-.7705285-.35907677-.4853456-.46632007-1.1123767-.28895615-1.6894715l9.25-30.54v-13z" fill="#af8066"/><path d="m52.43 52h-.01c-.8435726.0010563-1.5877165-.5519688-1.83-1.36l-9.59-31.64v-13h4v13l9.25 30.54c.1773639.5770948.0701206 1.2041259-.2889562 1.6894715-.3590767.4853455-.9273089.7713198-1.5310438.7705285z" fill="#af8066"/></g></svg>

<?xml version="1.0" encoding="UTF-8"?>
<svg width="58px" height="52px" viewBox="0 0 58 52" version="1.1" xmlns="http://www.w3.org/2000/svg" xmlns:xlink="http://www.w3.org/1999/xlink">
    <!-- Generator: Sketch 47.1 (45422) - http://www.bohemiancoding.com/sketch -->
    <title>Tools - Flat - 025 - Workbench</title>
    <desc>Created with Sketch.</desc>
    <defs></defs>
    <g id="Page-1" stroke="none" stroke-width="1" fill="none" fill-rule="evenodd">
        <g id="Tools---Flat---025---Workbench" fill-rule="nonzero">
            <rect id="Rectangle-path" fill="#95A5A5" x="49.99994" y="5.99991" width="4" height="6.77"></rect>
            <path d="M51,0 L53,0 C54.1045695,0 55,0.8954305 55,2 L55,5 L49,5 L49,2 C49,0.8954305 49.8954305,0 51,0 Z" id="Shape" fill="#95A5A5"></path>
            <path d="M7,0 L5,0 C3.8954305,0 3,0.8954305 3,2 L3,5 L9,5 L9,2 C9,0.8954305 8.1045695,0 7,0 Z" id="Shape" fill="#95A5A5"></path>
            <rect id="Rectangle-path" fill="#95A5A5" x="4" y="7.375" width="4" height="5.395"></rect>
            <path d="M1,21 C0.595604102,20.9999137 0.23106595,20.7562725 0.0763220219,20.3826546 C-0.078421906,20.0090366 0.00709208442,19.5789943 0.293,19.293 L3.17288,16.41312 C3.42547749,16.1605225 3.79364635,16.061872 4.13870094,16.1543291 C4.48375553,16.2467862 4.75327384,16.5163045 4.84573094,16.8613591 C4.93818804,17.2064136 4.83953749,17.5745825 4.58694,17.82718 L1.707,20.707 C1.51970976,20.8948521 1.26526582,21.0003006 1,21 Z" id="Shape" fill="#7F8C8D"></path>
            <path d="M57,21 C56.7347342,21.0003006 56.4802902,20.8948521 56.293,20.707 L53.41312,17.82712 C53.1605225,17.5745225 53.061872,17.2063536 53.1543291,16.8612991 C53.2467862,16.5162445 53.5163045,16.2467262 53.8613591,16.1542691 C54.2064136,16.061812 54.5745825,16.1604625 54.82718,16.41306 L57.707,19.293 C57.9929079,19.5789943 58.0784219,20.0090366 57.923678,20.3826546 C57.7689341,20.7562725 57.4043959,20.9999137 57,21 Z" id="Shape" fill="#7F8C8D"></path>
            <rect id="Rectangle-path" fill="#CB9080" x="15.0719" y="15" width="27.9281" height="4"></rect>
            <path d="M47.68458,38 L10.3149,38 C9.94130591,38.0255727 9.58461201,37.8407634 9.39003913,37.5208136 C9.19546625,37.2008638 9.19546625,36.7991362 9.39003913,36.4791864 C9.58461201,36.1592366 9.94130591,35.9744273 10.3149,36 L47.68458,36 C48.0581741,35.9744273 48.414868,36.1592366 48.6094409,36.4791864 C48.8040138,36.7991362 48.8040138,37.2008638 48.6094409,37.5208136 C48.414868,37.8407634 48.0581741,38.0255727 47.68458,38 L47.68458,38 Z" id="Shape" fill="#CB9080"></path>
            <path d="M50.92925,48 L7.07075,48 C6.69715591,48.0255727 6.34046201,47.8407634 6.14588913,47.5208136 C5.95131625,47.2008638 5.95131625,46.7991362 6.14588913,46.4791864 C6.34046201,46.1592366 6.69715591,45.9744273 7.07075,46 L50.92925,46 C51.3028441,45.9744273 51.659538,46.1592366 51.8541109,46.4791864 C52.0486838,46.7991362 52.0486838,47.2008638 51.8541109,47.5208136 C51.659538,47.8407634 51.3028441,48.0255727 50.92925,48 Z" id="Shape" fill="#CB9080"></path>
            <rect id="Rectangle-path" fill="#AF8066" x="0" y="4" width="58" height="4" rx="1"></rect>
            <circle id="Oval" fill="#BDC3C7" cx="6" cy="15" r="3"></circle>
            <circle id="Oval" fill="#BDC3C7" cx="52" cy="15" r="3"></circle>
            <path d="M17,6 L17,19 L7.41,50.64 C7.16771653,51.4480312 6.42357255,52.0010563 5.58,52 L5.57,52 C4.96626514,52.0007913 4.39803292,51.714817 4.03895615,51.2294715 C3.67987938,50.7441259 3.57263608,50.1170948 3.75,49.54 L13,19 L13,6 L17,6 Z" id="Shape" fill="#AF8066"></path>
            <path d="M52.43,52 L52.42,52 C51.5764274,52.0010563 50.8322835,51.4480312 50.59,50.64 L41,19 L41,6 L45,6 L45,19 L54.25,49.54 C54.4273639,50.1170948 54.3201206,50.7441259 53.9610438,51.2294715 C53.6019671,51.714817 53.0337349,52.0007913 52.43,52 Z" id="Shape" fill="#AF8066"></path>
        </g>
    </g>
</svg>
